X:450
T:Tombstone Junction
C:Bill Monroe 
N:Transcribed by Larry Tanner
R:bluegrass
L:1/8
Q:1/4=220
M:4/4
K:C
"G"G2 GG GD [D2D2] | DG DG D[DD] CD | _B,=B, GG GD [D2D2] | DG DG D[DD] CD | _B,=B, G2 "G7"FF F2 | 
"C"EG GG EG G_B | B2 G2 D2 [D2D2] | "G"DG DG D[DD] CD | _B,=B, GG GD [D2D2] | 
"D"[dD][d2D2][dD] [d2D2] [dD][dD] | z2 [c2D2] _B=B BG | "G"z2 DG B,G [GG,][GG,] | 
GG GG GD [D2D2] | DG DG D[DD] CD | _B,=B, GG GD [D2D2] | DG DG D[DD] CD | _B,=B, G2 "G7"FF F2 | 
"C"EG EG EG G_B | B2 G2 D2 [D2D2] | "G"DG DG D[DD] CD | _B,=B, GG GD [D2D2] | 
"D"[dD][d2D2][dD] [d2D2] [dD][dD] | z2 [c2D2] _B=B BG | "G"z2 DG D2 [G2G,2] | 
[G2G,2] [g2d2] [g2d2] [bg][bg] | [bg][bg] [bg][bg] [b2g2] e2 | "C"[ge][ge] [ge][ge] [g2e2] [ge][ge] | 
"G"dd [gd][gd] [g2d2] BG | "G7"[BF][BF] [BF][BF] [B2F2] D2 | "C"EG GE GE G_B | 
B2 G2 G2 Gg | "G"gd ^c_B =BG2_B | BG G2 E2 DF | "D"^Fd Fd d2 d2 | ^cd cd cB G_B | 
"G"BG FD ED _B,=B, | G,8 | 


